X:1
T:3. Dei gamle Fjelli
T:3. Dei gamle Fjelli
T:Symra
T:Chr. Haslerud
T:Ivar Aasen
C:Chr. Haslerud
Z:Ivar Aasen
%%score [ 1 2 3 4 ]
L:1/8
Q:1/4=92
M:4/4
K:Ab
V:1 treble nm="Soprano"
V:2 treble nm="Alto"
V:3 treble-8 nm="Tenor"
V:4 bass nm="Bass"
V:1
!f!"^Kraftigt" E2 | A3 A G2 G2 | A2 c2 B z B2 | e3 e =d2 d2 | e4 z2!p! E2 | A3 A G2 C2 | %6
w: Dei|gam- le Fjell i|Sy- ning- om er|al- tid eins aa|sjaa, med|sa- me gam- le|
 F3 F!<(! =E2 C2 | F2!<)! G2 A2 G2 | F4 z2!p! F2 | E3 E F2 G2 | A2 B2 c z c2 |!<(! d3 d c2!<)! A2 | %12
w: Bry- ning- om og|sa- me Top- pom|paa. I|Byg- dom byg- gja|Svei- nar- ne og|Hu- set sten- der|
 e6 z2 |!p! f f e e d d c c | z8 |!f! A4 c4 | e4 e2 e2 | e4 e4 |!ff! e4 d4 | c4 B4 | A4 z2 |] %21
w: laust:|men dei gam- le, men dei gam- le,||Mer- ke-|stei- nar- ne|stan- da,|stan- da|li- ke|traust.|
V:2
!f! C2 | E3 E E2 E2 | E2 A2 G z G2 | E3 G F2 F2 | E4 z2!p! E2 | F3 C C2 C2 | D3 D!<(! C2 C2 | %7
w: Dei|gam- le Fjell i|Sy- ning- om er|al- tid eins aa|sjaa, med|sa- me gam- le|Bry- ning- om og|
 C2!<)! =E2 F2 E2 | C4 z2!p! D2 | D3 D D2 D2 | E2 E2 E z E2 |!<(! E3 E E2!<)! E2 | G6 z2 | %13
w: sa- me Top- pom|paa. I|Byg- dom byg- gja|Svei- nar- ne og|Hu- set sten- der|laust:|
!p! d d c c F G A E |!p! F F E E D D C C |!f! E4 E4 | A4 A2 A2 | A4 c4 |!ff! A4 A4 | A4 G4 | %20
w: men dei gam- le, men dei gam- le,|men dei gam- le, men dei gam- le,|Mer- ke-|stei- nar- ne|stan- da,|stan- da|li- ke|
 E4 z2 |] %21
w: traust.|
V:3
!f! A2 | c3 c d2 d2 | e2 e2 e z B2 | B3 B A2 A2 | G4 z2!p! c2 | c3 A B2 B2 | B3 B!<(! B2 B2 | %7
w: Dei|gam- le Fjell i|Sy- ning- om er|al- tid eins aa|sjaa, med|sa- me gam- le|Bry- ning- om og|
 A2!<)! B2 c2 B2 | A4 z2!p! A2 | B3 B B2 B2 | A2 G2 A z A2 |!<(! B3 B A2!<)! A2 | B6 z2 | z8 | %14
w: sa- me Top- pom|paa. I|Byg- dom byg- gja|Svei- nar- ne og|Hu- set sten- der|laust:||
!p! d d c A F G A A |!f! c4 c4 | c4 c2 c2 | A B c d e f e d |!ff! c4 A4 | e4 d4 | c4 z2 |] %21
w: men dei gam- le, men dei gam- le,|Mer- ke-|stei- nar- ne|gam- le Mer- ke- stei- nar- ne, dei|stan- da|li- ke|traust.|
V:4
!f! A,2 | A,,3 A,, B,,2 B,,2 | C,2 A,,2 E, z E,2 | G,,3 G,, B,,2 B,,2 | E,4 z2!p! A,2 | %5
w: Dei|gam- le Fjell i|Sy- ning- om er|al- tid eins aa|sjaa, med|
 F,3 F, =E,2 G,2 | G,3 G,!<(! G,2 G,2 | A,2!<)! G,2 F,2 C,2 | F,4 z2!p! F,2 | G,3 G, F,2 E,2 | %10
w: sa- me gam- le|Bry- ning- om og|sa- me Top- pom|paa. I|Byg- dom byg- gja|
 C,2 E,2 A,, z A,,2 |!<(! G,,3 G,, A,,2!<)! C,2 | E,6 z2 | z8 | z8 |!f! A,4 A,4 | %16
w: Svei- nar- ne og|Hu- set sten- der|laust:|||Mer- ke-|
 A,2 E,2 C,2 A,, B,, | C, D, E, F, E, A, G, F, |!ff! E,4 F,4 | E,4 E,4 | A,4 z2 |] %21
w: stei- * nar, men dei|gam- le Mer- ke- stei- nar- ne, dei|stan- da|li- ke|traust.|

